www/assets/icons/wifi.svg

<svg width="24" height="24" viewBox="0 0 24 24" xmlns="http://www.w3.org/2000/svg" fill='currentColor'><path d="M1 8.77613L3 10.7761C7.97 5.80613 16.03 5.80613 21 10.7761L23 8.77613C16.93 2.70613 7.08 2.70613 1 8.77613ZM9 16.7761L12 19.7761L15 16.7761C13.35 15.1161 10.66 15.1161 9 16.7761ZM5 12.7761L7 14.7761C9.76 12.0161 14.24 12.0161 17 14.7761L19 12.7761C15.14 8.91613 8.87 8.91613 5 12.7761Z"/></svg>

<svg xmlns="http://www.w3.org/2000/svg" width="24" height="24" viewBox="0 0 24 24" fill='currentColor'><path d="m1 8.776 2 2c4.97-4.97 13.03-4.97 18 0l2-2c-6.07-6.07-15.92-6.07-22 0m8 8 3 3 3-3a4.237 4.237 0 0 0-6 0m-4-4 2 2a7.074 7.074 0 0 1 10 0l2-2c-3.86-3.86-10.13-3.86-14 0"/></svg>
